lib/functional/media/image.svg

<svg xmlns="http://www.w3.org/2000/svg" fill="none" stroke="currentColor" aria-hidden="true" viewBox="0 0 32 32"><g id="Icon-Image"><g clip-path="url(#clip0_12_3459)"><g id="size=md (32px)"><path id="Vector" stroke-linecap="round" stroke-linejoin="round" stroke-width="2" d="M27 6H5C4.44772 6 4 6.44772 4 7V25C4 25.5523 4.44772 26 5 26H27C27.5523 26 28 25.5523 28 25V7C28 6.44772 27.5523 6 27 6Z"/><path id="Vector_2" stroke-linecap="round" stroke-linejoin="round" stroke-width="2" d="M4 20.9999L10.2875 14.7124C10.3805 14.6179 10.4915 14.5429 10.6138 14.4917C10.7361 14.4404 10.8674 14.4141 11 14.4141C11.1326 14.4141 11.2639 14.4404 11.3862 14.4917C11.5085 14.5429 11.6195 14.6179 11.7125 14.7124L17.2875 20.2874C17.3805 20.3819 17.4915 20.4569 17.6138 20.5081C17.7361 20.5593 17.8674 20.5857 18 20.5857C18.1326 20.5857 18.2639 20.5593 18.3862 20.5081C18.5085 20.4569 18.6195 20.3819 18.7125 20.2874L21.2875 17.7124C21.3805 17.6179 21.4915 17.5429 21.6138 17.4917C21.7361 17.4404 21.8674 17.4141 22 17.4141C22.1326 17.4141 22.2639 17.4404 22.3862 17.4917C22.5085 17.5429 22.6195 17.6179 22.7125 17.7124L28 22.9999"/><path id="Vector_3" fill="#101828" d="M19.5 14C20.3284 14 21 13.3284 21 12.5C21 11.6716 20.3284 11 19.5 11C18.6716 11 18 11.6716 18 12.5C18 13.3284 18.6716 14 19.5 14Z"/></g></g></g><defs><clipPath id="clip0_12_3459"><rect width="32" height="32" fill="white" rx="5"/></clipPath></defs></svg>

<svg xmlns="http://www.w3.org/2000/svg" fill="none" stroke="currentColor" aria-hidden="true" viewBox="0 0 32 32"><g clip-path="url(#a)"><path stroke-linecap="round" stroke-linejoin="round" stroke-width="2" d="M27 6H5a1 1 0 0 0-1 1v18a1 1 0 0 0 1 1h22a1 1 0 0 0 1-1V7a1 1 0 0 0-1-1Z"/><path stroke-linecap="round" stroke-linejoin="round" stroke-width="2" d="m4 21 6.287-6.288a1 1 0 0 1 1.425 0l5.576 5.575a1 1 0 0 0 1.424 0l2.576-2.575a1 1 0 0 1 1.424 0L28 23"/><path fill="#101828" d="M19.5 14a1.5 1.5 0 1 0 0-3 1.5 1.5 0 0 0 0 3Z"/></g><defs><clipPath id="a"><rect width="32" height="32" fill="#fff" rx="5"/></clipPath></defs></svg>
